images/dollar.svg

<svg width="32" height="32" viewBox="0 0 32 32" fill="none" xmlns="http://www.w3.org/2000/svg">
<path fill-rule="evenodd" clip-rule="evenodd" d="M0 16C0 7.16406 7.16406 0 16 0C24.8379 0 32 7.16406 32 16C32 24.8359 24.8379 32 16 32C7.16406 32 0 24.8359 0 16ZM16.9531 23.7364C18.4395 23.5801 19.5761 23.0606 20.3633 22.1777C21.1504 21.2969 21.5449 20.1953 21.5449 18.8732C21.5449 18.0119 21.3536 17.2599 20.9728 16.6153C20.5899 15.9727 20.0802 15.4669 19.4396 15.1016C18.8009 14.7364 17.9181 14.3477 16.7931 13.9376C15.7696 13.5606 15.0997 13.2462 14.7891 12.9923C14.4766 12.7364 14.3204 12.3711 14.3204 11.8946C14.3204 11.4278 14.4824 11.0293 14.8067 10.7012C15.1289 10.3731 15.5586 10.209 16.0938 10.209C17.1601 10.209 17.9454 10.9434 18.4551 12.4121L21.0645 11.3418C20.4415 9.19925 19.0704 8.002 16.9532 7.74806V6H15.0586V7.748C13.6562 7.94525 12.6289 8.48631 11.9766 9.37106C11.3242 10.2577 10.9961 11.2558 10.9961 12.3632C10.9961 13.207 11.1796 13.9492 11.5449 14.5859C11.9101 15.2207 12.3867 15.7149 12.9726 16.0664C13.5586 16.4218 14.3731 16.7774 15.4141 17.1386C16.5723 17.5487 17.3203 17.8867 17.6562 18.1543C17.9921 18.4199 18.1601 18.8125 18.1601 19.3301C18.1601 19.8301 17.9922 20.2558 17.6562 20.6094C17.3203 20.9629 16.7929 21.1387 16.0801 21.1387C14.5547 21.1387 13.6562 20.3144 13.3848 18.6641L10.4551 19.4277C11.0468 22.0527 12.5801 23.4942 15.0586 23.7481V26H16.9531V23.7364Z" fill="white"/>
</svg>

<svg xmlns="http://www.w3.org/2000/svg" width="32" height="32" fill="none"><path fill="#fff" fill-rule="evenodd" d="M0 16C0 7.164 7.164 0 16 0c8.838 0 16 7.164 16 16s-7.162 16-16 16C7.164 32 0 24.836 0 16Zm16.953 7.736c1.486-.156 2.623-.675 3.41-1.558.787-.881 1.182-1.983 1.182-3.305 0-.861-.191-1.613-.572-2.258a4.16 4.16 0 0 0-1.533-1.513c-.64-.366-1.522-.754-2.647-1.164-1.023-.377-1.693-.692-2.004-.946-.312-.256-.469-.62-.469-1.097 0-.467.162-.866.487-1.194.322-.328.752-.492 1.287-.492 1.066 0 1.851.734 2.361 2.203l2.61-1.07c-.623-2.143-1.995-3.34-4.112-3.594V6H15.06v1.748c-1.403.197-2.43.738-3.082 1.623a4.928 4.928 0 0 0-.98 2.992c0 .844.183 1.586.548 2.223a4.032 4.032 0 0 0 1.428 1.48c.586.356 1.4.711 2.441 1.073 1.158.41 1.906.748 2.242 1.015.336.266.504.659.504 1.176 0 .5-.168.926-.504 1.28-.336.353-.863.529-1.576.529-1.525 0-2.424-.825-2.695-2.475l-2.93.764c.592 2.625 2.125 4.066 4.604 4.32V26h1.894v-2.264Z" clip-rule="evenodd"/></svg>
